X: 8
T: MacArthur Road
R: reel
M: 4/4
L: 1/8
K: Dmaj
|: dA A2 ABde | f3d ed (3Bcd | e3f ed (3Bcd | effd edBe |
dA A2 ABde | f3d ed (3Bcd | e3f edBA | Bdde d3e :|
|: fA A2 fAgA | fAgA fd (3Bcd | e3f ed (3Bcd | effd ed (3Bcd |
fA A2 fAgA | fAgA fd (3Bcd | e3f edBA | Bdde d3e |
fA A2 fAgA | fAgA fd (3Bcd | e3f ed (3Bcd | effd edBe |
dA A2 ABde | f3d ed (3Bcd | e3f edBA | Bdde d3e ||


Tune 2221	Setting 15585

